;FLAVOR:Marlin
;TIME:6
;Layer height: 2
;MINX:10
;MINY:0
;MINZ:2
;MAXX:240
;MAXY:230
;MAXZ:2
T1
M140 S70
M105
M190 S70
M105
M82 ;absolute extrusion mode
G21 ;metric values
M107
G28
M420 S1
G90 ;absolute positioning
G92 E0; reset extruder distance
G1 X0 Y0 Z10 F5000 ;move nozzle up 10mm for safe homing
M500
M82 ;set extruder to absolute mode
M107 ;start with the fan off
G92 E0 ;zero the extruded length
M117 Printing...
G92 E0
G92 E0
;LAYER_COUNT:1
;LAYER:0
M107




;Layer1 Z2
G0 F3600 X20 Y50 Z2
G1 F420 X50 Y50 E0.5
G1 F420 X84.15 Y50 E1.0692
G1 F420 X118.3 Y50 E1.6383
G1 F420 X152.45 Y50 E2.2075
G1 F420 X186.6 Y50 E2.7767
G1 F420 X220.75 Y50 E3.3458
G0 F3600 X220.75 Y84.15
G1 F420 X186.6 Y84.15 E3.915
G1 F420 X152.45 Y84.15 E4.4842
G1 F420 X118.3 Y84.15 E5.0533
G1 F420 X84.15 Y84.15 E5.6225
G1 F420 X50 Y84.15 E6.1917
G0 F3600 X50 Y118.3
G1 F420 X84.15 Y118.3 E6.7608
G1 F420 X118.3 Y118.3 E7.33
G1 F420 X152.45 Y118.3 E7.8992
G1 F420 X186.6 Y118.3 E8.4683
G1 F420 X220.75 Y118.3 E9.0375
G0 F3600 X220.75 Y152.45
G1 F420 X186.6 Y152.45 E9.6067
G1 F420 X152.45 Y152.45 E10.1758
G1 F420 X118.3 Y152.45 E10.745
G1 F420 X84.15 Y152.45 E11.3142
G1 F420 X50 Y152.45 E11.8833
G0 F3600 X50 Y186.6
G1 F420 X84.15 Y186.6 E12.4525
G1 F420 X118.3 Y186.6 E13.0217
G1 F420 X152.45 Y186.6 E13.5908
G1 F420 X186.6 Y186.6 E14.16
G1 F420 X220.75 Y186.6 E14.7292
G0 F3600 X220.75 Y220.75
G1 F420 X186.6 Y220.75 E15.6778
G1 F420 X152.45 Y220.75 E16.4367
G1 F420 X118.3 Y220.75 E17.1956
G1 F420 X84.15 Y220.75 E17.9544
G1 F420 X50 Y220.75 E18.9031
G1 F420 X50 Y186.6 E19.8517
G1 F420 X50 Y152.45 E20.8003
G1 F420 X50 Y118.3 E21.7489
G1 F420 X50 Y84.15 E22.6975
G1 F420 X50 Y50 E23.6461
G0 F3600 X84.15 Y50
G1 F420 X84.15 Y84.15 E24.2153
G1 F420 X84.15 Y118.3 E24.9742
G1 F420 X84.15 Y152.45 E25.9228
G1 F420 X84.15 Y186.6 E26.8714
G1 F420 X84.15 Y220.75 E27.82
G0 F3600 X118.3 Y220.75
G1 F420 X118.3 Y186.6 E28.7686
G1 F420 X118.3 Y152.45 E29.7172
G1 F420 X118.3 Y118.3 E30.6658
G1 F420 X118.3 Y84.15 E31.4247
G1 F420 X118.3 Y50 E31.9939
G0 F3600 X152.45 Y50
G1 F420 X152.45 Y84.15 E32.5631
G1 F420 X152.45 Y118.3 E33.3219
G1 F420 X152.45 Y152.45 E34.2706
G1 F420 X152.45 Y186.6 E35.2192
G1 F420 X152.45 Y220.75 E36.1678
G0 F3600 X186.6 Y220.75
G1 F420 X186.6 Y186.6 E37.1164
G1 F420 X186.6 Y152.45 E38.065
G1 F420 X186.6 Y118.3 E39.0136
G1 F420 X186.6 Y84.15 E39.7725
G1 F420 X186.6 Y50 E40.3417
G0 F3600 X220.75 Y50
G1 F420 X220.75 Y84.15 E41.2903
G1 F420 X220.75 Y118.3 E42.2389
G1 F420 X220.75 Y152.45 E43.1875
G1 F420 X220.75 Y186.6 E44.1361
G1 F420 X220.75 Y220.75 E45.0847
G0 F3600 X220.75 Y220.75
G1 F420 X203.675 Y203.675 E45.7555
G1 F420 X186.6 Y220.75 E46.4263
G1 F420 X169.525 Y203.675 E47.097
G1 F420 X152.45 Y220.75 E47.7678
G1 F420 X135.375 Y203.675 E48.4386
G1 F420 X118.3 Y220.75 E49.1093
G1 F420 X101.225 Y203.675 E49.7801
G1 F420 X84.15 Y220.75 E50.4509
G1 F420 X67.075 Y203.675 E51.1216
G1 F420 X50 Y220.75 E51.7924
G0 F3600 X50 Y186.6
G1 F420 X67.075 Y203.675 E52.1949
G1 F420 X84.15 Y186.6 E52.8656
G1 F420 X101.225 Y203.675 E53.4023
G1 F420 X118.3 Y186.6 E54.073
G1 F420 X135.375 Y203.675 E54.6096
G1 F420 X152.45 Y186.6 E55.1463
G1 F420 X169.525 Y203.675 E55.817
G1 F420 X186.6 Y186.6 E56.3536
G1 F420 X203.675 Y203.675 E57.0244
G1 F420 X220.75 Y186.6 E57.4269
G1 F420 X203.675 Y169.525 E58.0976
G1 F420 X186.6 Y186.6 E58.5001
G1 F420 X169.525 Y169.525 E59.1709
G1 F420 X152.45 Y186.6 E59.5733
G1 F420 X135.375 Y169.525 E60.11
G1 F420 X118.3 Y186.6 E60.6466
G1 F420 X101.225 Y169.525 E61.049
G1 F420 X84.15 Y186.6 E61.7198
G1 F420 X67.075 Y169.525 E62.1223
G1 F420 X50 Y186.6 E62.793
G0 F3600 X50 Y152.45
G1 F420 X67.075 Y169.525 E63.1955
G1 F420 X84.15 Y152.45 E63.7321
G1 F420 X101.225 Y169.525 E64.1346
G1 F420 X118.3 Y152.45 E64.537
G1 F420 X135.375 Y169.525 E64.9395
G1 F420 X152.45 Y152.45 E65.342
G1 F420 X169.525 Y169.525 E65.7444
G1 F420 X186.6 Y152.45 E66.1469
G1 F420 X203.675 Y169.525 E66.6835
G1 F420 X220.75 Y152.45 E67.086
G1 F420 X203.675 Y135.375 E67.4884
G1 F420 X186.6 Y152.45 E67.8909
G1 F420 X169.525 Y135.375 E68.2933
G1 F420 X152.45 Y152.45 E68.6958
G1 F420 X135.375 Y135.375 E69.0983
G1 F420 X118.3 Y152.45 E69.5007
G1 F420 X101.225 Y135.375 E69.9032
G1 F420 X84.15 Y152.45 E70.3056
G1 F420 X67.075 Y135.375 E70.7081
G1 F420 X50 Y152.45 E71.1106
G0 F3600 X50 Y118.3
G1 F420 X67.075 Y135.375 E71.513
G1 F420 X84.15 Y118.3 E71.9155
G1 F420 X101.225 Y135.375 E72.318
G1 F420 X118.3 Y118.3 E72.7204
G1 F420 X135.375 Y135.375 E73.1229
G1 F420 X152.45 Y118.3 E73.5253
G1 F420 X169.525 Y135.375 E73.9278
G1 F420 X186.6 Y118.3 E74.3303
G1 F420 X203.675 Y135.375 E74.7327
G1 F420 X220.75 Y118.3 E75.1352
G1 F420 X203.675 Y101.225 E75.5377
G1 F420 X186.6 Y118.3 E75.9401
G1 F420 X169.525 Y101.225 E76.3426
G1 F420 X152.45 Y118.3 E76.745
G1 F420 X135.375 Y101.225 E77.1475
G1 F420 X118.3 Y118.3 E77.55
G1 F420 X101.225 Y101.225 E77.9524
G1 F420 X84.15 Y118.3 E78.3549
G1 F420 X67.075 Y101.225 E78.7573
G1 F420 X50 Y118.3 E79.1598
G0 F3600 X50 Y84.15
G1 F420 X67.075 Y101.225 E79.5623
G1 F420 X84.15 Y84.15 E79.9647
G1 F420 X101.225 Y101.225 E80.3672
G1 F420 X118.3 Y84.15 E80.7697
G1 F420 X135.375 Y101.225 E81.1721
G1 F420 X152.45 Y84.15 E81.5746
G1 F420 X169.525 Y101.225 E81.977
G1 F420 X186.6 Y84.15 E82.3795
G1 F420 X203.675 Y101.225 E82.782
G1 F420 X220.75 Y84.15 E83.1844
G1 F420 X203.675 Y67.075 E83.5869
G1 F420 X186.6 Y84.15 E83.9893
G1 F420 X169.525 Y67.075 E84.3918
G1 F420 X152.45 Y84.15 E84.7943
G1 F420 X135.375 Y67.075 E85.1967
G1 F420 X118.3 Y84.15 E85.5992
G1 F420 X101.225 Y67.075 E86.0017
G1 F420 X84.15 Y84.15 E86.4041
G1 F420 X67.075 Y67.075 E86.8066
G1 F420 X50 Y84.15 E87.209
G0 F3600 X50 Y50
G1 F420 X67.075 Y67.075 E87.6115
G1 F420 X84.15 Y50 E88.014
G1 F420 X101.225 Y67.075 E88.4164
G1 F420 X118.3 Y50 E88.8189
G1 F420 X135.375 Y67.075 E89.2213
G1 F420 X152.45 Y50 E89.6238
G1 F420 X169.525 Y67.075 E90.0263
G1 F420 X186.6 Y50 E90.4287
G1 F420 X203.675 Y67.075 E90.8312
G1 F420 X220.75 Y50 E91.2337




;Interlayer time gap
G0 F3600 X50 Y50 Z4
G91
G1 Z200
G4 S300
G1 Z-200
G90




;Layer2 Z4
G0 F3600 X20 Y50 Z4
G1 F420 X50 Y50 E91.7337
G1 F420 X84.15 Y50 E92.3028
G1 F420 X118.3 Y50 E92.872
G1 F420 X152.45 Y50 E93.4412
G1 F420 X186.6 Y50 E94.0103
G1 F420 X220.75 Y50 E94.5795
G0 F3600 X220.75 Y84.15
G1 F420 X186.6 Y84.15 E95.1487
G1 F420 X152.45 Y84.15 E95.7178
G1 F420 X118.3 Y84.15 E96.287
G1 F420 X84.15 Y84.15 E96.8562
G1 F420 X50 Y84.15 E97.4253
G0 F3600 X50 Y118.3
G1 F420 X84.15 Y118.3 E97.9945
G1 F420 X118.3 Y118.3 E98.5637
G1 F420 X152.45 Y118.3 E99.1328
G1 F420 X186.6 Y118.3 E99.702
G1 F420 X220.75 Y118.3 E100.2712
G0 F3600 X220.75 Y152.45
G1 F420 X186.6 Y152.45 E100.8403
G1 F420 X152.45 Y152.45 E101.4095
G1 F420 X118.3 Y152.45 E101.9787
G1 F420 X84.15 Y152.45 E102.5478
G1 F420 X50 Y152.45 E103.117
G0 F3600 X50 Y186.6
G1 F420 X84.15 Y186.6 E103.6862
G1 F420 X118.3 Y186.6 E104.2553
G1 F420 X152.45 Y186.6 E104.8245
G1 F420 X186.6 Y186.6 E105.3937
G1 F420 X220.75 Y186.6 E105.9628
G0 F3600 X220.75 Y220.75
G1 F420 X186.6 Y220.75 E106.9114
G1 F420 X152.45 Y220.75 E107.6703
G1 F420 X118.3 Y220.75 E108.4292
G1 F420 X84.15 Y220.75 E109.1881
G1 F420 X50 Y220.75 E110.1367
G1 F420 X50 Y186.6 E111.0853
G1 F420 X50 Y152.45 E112.0339
G1 F420 X50 Y118.3 E112.9825
G1 F420 X50 Y84.15 E113.9312
G1 F420 X50 Y50 E114.8798
G0 F3600 X84.15 Y50
G1 F420 X84.15 Y84.15 E115.4489
G1 F420 X84.15 Y118.3 E116.2078
G1 F420 X84.15 Y152.45 E117.1564
G1 F420 X84.15 Y186.6 E118.105
G1 F420 X84.15 Y220.75 E119.0537
G0 F3600 X118.3 Y220.75
G1 F420 X118.3 Y186.6 E120.0023
G1 F420 X118.3 Y152.45 E120.9509
G1 F420 X118.3 Y118.3 E121.8995
G1 F420 X118.3 Y84.15 E122.6584
G1 F420 X118.3 Y50 E123.2275
G0 F3600 X152.45 Y50
G1 F420 X152.45 Y84.15 E123.7967
G1 F420 X152.45 Y118.3 E124.5556
G1 F420 X152.45 Y152.45 E125.5042
G1 F420 X152.45 Y186.6 E126.4528
G1 F420 X152.45 Y220.75 E127.4014
G0 F3600 X186.6 Y220.75
G1 F420 X186.6 Y186.6 E128.35
G1 F420 X186.6 Y152.45 E129.2987
G1 F420 X186.6 Y118.3 E130.2473
G1 F420 X186.6 Y84.15 E131.0062
G1 F420 X186.6 Y50 E131.5753
G0 F3600 X220.75 Y50
G1 F420 X220.75 Y84.15 E132.5239
G1 F420 X220.75 Y118.3 E133.4725
G1 F420 X220.75 Y152.45 E134.4212
G1 F420 X220.75 Y186.6 E135.3698
G1 F420 X220.75 Y220.75 E136.3184
G0 F3600 X220.75 Y220.75
G1 F420 X203.675 Y203.675 E136.9891
G1 F420 X186.6 Y220.75 E137.6599
G1 F420 X169.525 Y203.675 E138.3307
G1 F420 X152.45 Y220.75 E139.0015
G1 F420 X135.375 Y203.675 E139.6722
G1 F420 X118.3 Y220.75 E140.343
G1 F420 X101.225 Y203.675 E141.0138
G1 F420 X84.15 Y220.75 E141.6845
G1 F420 X67.075 Y203.675 E142.3553
G1 F420 X50 Y220.75 E143.0261
G0 F3600 X50 Y186.6
G1 F420 X67.075 Y203.675 E143.4285
G1 F420 X84.15 Y186.6 E144.0993
G1 F420 X101.225 Y203.675 E144.6359
G1 F420 X118.3 Y186.6 E145.3067
G1 F420 X135.375 Y203.675 E145.8433
G1 F420 X152.45 Y186.6 E146.3799
G1 F420 X169.525 Y203.675 E147.0507
G1 F420 X186.6 Y186.6 E147.5873
G1 F420 X203.675 Y203.675 E148.2581
G1 F420 X220.75 Y186.6 E148.6605
G1 F420 X203.675 Y169.525 E149.3313
G1 F420 X186.6 Y186.6 E149.7338
G1 F420 X169.525 Y169.525 E150.4045
G1 F420 X152.45 Y186.6 E150.807
G1 F420 X135.375 Y169.525 E151.3436
G1 F420 X118.3 Y186.6 E151.8802
G1 F420 X101.225 Y169.525 E152.2827
G1 F420 X84.15 Y186.6 E152.9535
G1 F420 X67.075 Y169.525 E153.3559
G1 F420 X50 Y186.6 E154.0267
G0 F3600 X50 Y152.45
G1 F420 X67.075 Y169.525 E154.4291
G1 F420 X84.15 Y152.45 E154.9658
G1 F420 X101.225 Y169.525 E155.3682
G1 F420 X118.3 Y152.45 E155.7707
G1 F420 X135.375 Y169.525 E156.1731
G1 F420 X152.45 Y152.45 E156.5756
G1 F420 X169.525 Y169.525 E156.9781
G1 F420 X186.6 Y152.45 E157.3805
G1 F420 X203.675 Y169.525 E157.9171
G1 F420 X220.75 Y152.45 E158.3196
G1 F420 X203.675 Y135.375 E158.7221
G1 F420 X186.6 Y152.45 E159.1245
G1 F420 X169.525 Y135.375 E159.527
G1 F420 X152.45 Y152.45 E159.9295
G1 F420 X135.375 Y135.375 E160.3319
G1 F420 X118.3 Y152.45 E160.7344
G1 F420 X101.225 Y135.375 E161.1368
G1 F420 X84.15 Y152.45 E161.5393
G1 F420 X67.075 Y135.375 E161.9418
G1 F420 X50 Y152.45 E162.3442
G0 F3600 X50 Y118.3
G1 F420 X67.075 Y135.375 E162.7467
G1 F420 X84.15 Y118.3 E163.1491
G1 F420 X101.225 Y135.375 E163.5516
G1 F420 X118.3 Y118.3 E163.9541
G1 F420 X135.375 Y135.375 E164.3565
G1 F420 X152.45 Y118.3 E164.759
G1 F420 X169.525 Y135.375 E165.1615
G1 F420 X186.6 Y118.3 E165.5639
G1 F420 X203.675 Y135.375 E165.9664
G1 F420 X220.75 Y118.3 E166.3688
G1 F420 X203.675 Y101.225 E166.7713
G1 F420 X186.6 Y118.3 E167.1738
G1 F420 X169.525 Y101.225 E167.5762
G1 F420 X152.45 Y118.3 E167.9787
G1 F420 X135.375 Y101.225 E168.3812
G1 F420 X118.3 Y118.3 E168.7836
G1 F420 X101.225 Y101.225 E169.1861
G1 F420 X84.15 Y118.3 E169.5885
G1 F420 X67.075 Y101.225 E169.991
G1 F420 X50 Y118.3 E170.3935
G0 F3600 X50 Y84.15
G1 F420 X67.075 Y101.225 E170.7959
G1 F420 X84.15 Y84.15 E171.1984
G1 F420 X101.225 Y101.225 E171.6008
G1 F420 X118.3 Y84.15 E172.0033
G1 F420 X135.375 Y101.225 E172.4058
G1 F420 X152.45 Y84.15 E172.8082
G1 F420 X169.525 Y101.225 E173.2107
G1 F420 X186.6 Y84.15 E173.6132
G1 F420 X203.675 Y101.225 E174.0156
G1 F420 X220.75 Y84.15 E174.4181
G1 F420 X203.675 Y67.075 E174.8205
G1 F420 X186.6 Y84.15 E175.223
G1 F420 X169.525 Y67.075 E175.6255
G1 F420 X152.45 Y84.15 E176.0279
G1 F420 X135.375 Y67.075 E176.4304
G1 F420 X118.3 Y84.15 E176.8328
G1 F420 X101.225 Y67.075 E177.2353
G1 F420 X84.15 Y84.15 E177.6378
G1 F420 X67.075 Y67.075 E178.0402
G1 F420 X50 Y84.15 E178.4427
G0 F3600 X50 Y50
G1 F420 X67.075 Y67.075 E178.8452
G1 F420 X84.15 Y50 E179.2476
G1 F420 X101.225 Y67.075 E179.6501
G1 F420 X118.3 Y50 E180.0525
G1 F420 X135.375 Y67.075 E180.455
G1 F420 X152.45 Y50 E180.8575
G1 F420 X169.525 Y67.075 E181.2599
G1 F420 X186.6 Y50 E181.6624
G1 F420 X203.675 Y67.075 E182.0648
G1 F420 X220.75 Y50 E182.4673




;Interlayer time gap
G0 F3600 X50 Y50 Z6
G91
G1 Z200
G4 S300
G1 Z-200
G90




;Layer3 Z6
G0 F3600 X20 Y50 Z6
G1 F420 X50 Y50 E182.9673
G1 F420 X84.15 Y50 E183.5365
G1 F420 X118.3 Y50 E184.1056
G1 F420 X152.45 Y50 E184.6748
G1 F420 X186.6 Y50 E185.244
G1 F420 X220.75 Y50 E185.8131
G0 F3600 X220.75 Y84.15
G1 F420 X186.6 Y84.15 E186.3823
G1 F420 X152.45 Y84.15 E186.9515
G1 F420 X118.3 Y84.15 E187.5206
G1 F420 X84.15 Y84.15 E188.0898
G1 F420 X50 Y84.15 E188.659
G0 F3600 X50 Y118.3
G1 F420 X84.15 Y118.3 E189.2281
G1 F420 X118.3 Y118.3 E189.7973
G1 F420 X152.45 Y118.3 E190.3665
G1 F420 X186.6 Y118.3 E190.9356
G1 F420 X220.75 Y118.3 E191.5048
G0 F3600 X220.75 Y152.45
G1 F420 X186.6 Y152.45 E192.074
G1 F420 X152.45 Y152.45 E192.6431
G1 F420 X118.3 Y152.45 E193.2123
G1 F420 X84.15 Y152.45 E193.7815
G1 F420 X50 Y152.45 E194.3506
G0 F3600 X50 Y186.6
G1 F420 X84.15 Y186.6 E194.9198
G1 F420 X118.3 Y186.6 E195.489
G1 F420 X152.45 Y186.6 E196.0581
G1 F420 X186.6 Y186.6 E196.6273
G1 F420 X220.75 Y186.6 E197.1965
G0 F3600 X220.75 Y220.75
G1 F420 X186.6 Y220.75 E198.1451
G1 F420 X152.45 Y220.75 E198.904
G1 F420 X118.3 Y220.75 E199.6629
G1 F420 X84.15 Y220.75 E200.4218
G1 F420 X50 Y220.75 E201.3704
G1 F420 X50 Y186.6 E202.319
G1 F420 X50 Y152.45 E203.2676
G1 F420 X50 Y118.3 E204.2162
G1 F420 X50 Y84.15 E205.1648
G1 F420 X50 Y50 E206.1134
G0 F3600 X84.15 Y50
G1 F420 X84.15 Y84.15 E206.6826
G1 F420 X84.15 Y118.3 E207.4415
G1 F420 X84.15 Y152.45 E208.3901
G1 F420 X84.15 Y186.6 E209.3387
G1 F420 X84.15 Y220.75 E210.2873
G0 F3600 X118.3 Y220.75
G1 F420 X118.3 Y186.6 E211.2359
G1 F420 X118.3 Y152.45 E212.1845
G1 F420 X118.3 Y118.3 E213.1331
G1 F420 X118.3 Y84.15 E213.892
G1 F420 X118.3 Y50 E214.4612
G0 F3600 X152.45 Y50
G1 F420 X152.45 Y84.15 E215.0304
G1 F420 X152.45 Y118.3 E215.7893
G1 F420 X152.45 Y152.45 E216.7379
G1 F420 X152.45 Y186.6 E217.6865
G1 F420 X152.45 Y220.75 E218.6351
G0 F3600 X186.6 Y220.75
G1 F420 X186.6 Y186.6 E219.5837
G1 F420 X186.6 Y152.45 E220.5323
G1 F420 X186.6 Y118.3 E221.4809
G1 F420 X186.6 Y84.15 E222.2398
G1 F420 X186.6 Y50 E222.809
G0 F3600 X220.75 Y50
G1 F420 X220.75 Y84.15 E223.7576
G1 F420 X220.75 Y118.3 E224.7062
G1 F420 X220.75 Y152.45 E225.6548
G1 F420 X220.75 Y186.6 E226.6034
G1 F420 X220.75 Y220.75 E227.552
G0 F3600 X220.75 Y220.75
G1 F420 X203.675 Y203.675 E228.2228
G1 F420 X186.6 Y220.75 E228.8936
G1 F420 X169.525 Y203.675 E229.5643
G1 F420 X152.45 Y220.75 E230.2351
G1 F420 X135.375 Y203.675 E230.9059
G1 F420 X118.3 Y220.75 E231.5766
G1 F420 X101.225 Y203.675 E232.2474
G1 F420 X84.15 Y220.75 E232.9182
G1 F420 X67.075 Y203.675 E233.589
G1 F420 X50 Y220.75 E234.2597
G0 F3600 X50 Y186.6
G1 F420 X67.075 Y203.675 E234.6622
G1 F420 X84.15 Y186.6 E235.333
G1 F420 X101.225 Y203.675 E235.8696
G1 F420 X118.3 Y186.6 E236.5403
G1 F420 X135.375 Y203.675 E237.077
G1 F420 X152.45 Y186.6 E237.6136
G1 F420 X169.525 Y203.675 E238.2843
G1 F420 X186.6 Y186.6 E238.821
G1 F420 X203.675 Y203.675 E239.4917
G1 F420 X220.75 Y186.6 E239.8942
G1 F420 X203.675 Y169.525 E240.565
G1 F420 X186.6 Y186.6 E240.9674
G1 F420 X169.525 Y169.525 E241.6382
G1 F420 X152.45 Y186.6 E242.0406
G1 F420 X135.375 Y169.525 E242.5773
G1 F420 X118.3 Y186.6 E243.1139
G1 F420 X101.225 Y169.525 E243.5163
G1 F420 X84.15 Y186.6 E244.1871
G1 F420 X67.075 Y169.525 E244.5896
G1 F420 X50 Y186.6 E245.2603
G0 F3600 X50 Y152.45
G1 F420 X67.075 Y169.525 E245.6628
G1 F420 X84.15 Y152.45 E246.1994
G1 F420 X101.225 Y169.525 E246.6019
G1 F420 X118.3 Y152.45 E247.0043
G1 F420 X135.375 Y169.525 E247.4068
G1 F420 X152.45 Y152.45 E247.8093
G1 F420 X169.525 Y169.525 E248.2117
G1 F420 X186.6 Y152.45 E248.6142
G1 F420 X203.675 Y169.525 E249.1508
G1 F420 X220.75 Y152.45 E249.5533
G1 F420 X203.675 Y135.375 E249.9557
